X:1
T:Dawning of the Day
R:march
M:4/4
L:1/4
K:G
E/G/|BBBA/B/|dded/B/|GAGF|G2zd|e3/2d/eg|B3/2A/GA|dBgB|A2zB/d/|
e3/2d/eg|B3/2A/GB|dBgB|A2zG/A/|BBBA/B/|dded/B/|GAGFG3|
